X: 24933
T: Maid Behind The Bar, The
R: reel
M: 4/4
K: Dmajor
FAAB AFED|FAAB A2 de|fBBA Bcde|fdeg edcB|
FAAB AFED|FAAB A2 de|fBBA BcdB|AFEF D3z:|
|:fgag f~d3|fdad f~d3|efga b~e3|gebe beed|
fgag b2ge|defd e2 de|fBBA BcdB|AFEF D3z:|

